X:424
T:Valse du grand banc
Z:Jack Campin, http://www.campin.me.uk/
F:Jack Campin's Nine-Note Tunebook
% last edit 03-02-2013
C:Dominique Dimey 
S:sheet by Bernard Loffet, in A minor
M:3/4
L:1/4
Q:3/4=64
K:DMin
A|D2D|E2E|F2E|D2F|A2F|G2G|A3|
                                GFE|D3-|D2::\
d|c2A|B2G|A2F|G2d|c2A|
                      B2G|A3|[1 GFG|A3-|A2:|\
                             [2 GFE|D3-|D2|]

